X:10793
T:Millar, Maud
M:C
L:1/8
K:E Dorian
gf|edBA GEDE|G2BG DGBd|eBdB A2GA|Beed e2:|!
ge|dega bgg2|aee2 g3e|dega bgg2|aged eage|!
dega bgg2|aee2 g3a|bgaf gfed|Beed e2|]!
